X:57
T:Cornish Quickstep
R:reel
C:Trad
M:4/4
L:1/8
K:D
^f=f|:f2 dc d2 A^G|A2 d2 f3 f|g2 f2 e2 d2|c2 B2 A2 ^f=f|
    |f2 dc d2 A^G |A2 d2 f3 f|e2 A2 B2 c2|1 d4 d2 ^f=f :|2 d4 d2 A2 |
    |:F2 AA A2 A2 |G2 BB B2 B2|A2 cc c2 c2|defe dcBA|
    |F2 AA A2 A2 |G2 BB B2 B2|A2 cc c2 e2|1 d4 d2 A2:|2 d4 d4|
